icons/svg/emoji-people_16.svg

<?xml version="1.0" encoding="UTF-8"?>
<svg width="16px" height="16px" viewBox="0 0 16 16" version="1.1" xmlns="http://www.w3.org/2000/svg" xmlns:xlink="http://www.w3.org/1999/xlink">
    <!-- Generator: Sketch 59.1 (86144) - https://sketch.com -->
    <title>emoji-people_16</title>
    <desc>Created with Sketch.</desc>
    <g id="New-Icon" stroke="none" stroke-width="1" fill="none" fill-rule="evenodd">
        <g id="emoji-people_16" fill="#171B1F">
            <path d="M8.0002,0.0002 C11.3793042,0.0002 15.4448858,2.61284106 15.6231451,5.90139313 L15.6292,6.1122 L15.9972,13.5062 C16.0302,14.1642 15.7982,14.7892 15.3452,15.2652 C14.9393,15.6918 14.40623,15.94587 13.827638,15.992418 L13.6332,16.0002 L2.3672,16.0002 C1.7142,16.0002 1.1062,15.7392 0.6552,15.2652 C0.2475,14.8368 0.01881,14.28771 0.001206,13.702494 L0.0032,13.5062 L0.3712,6.1002 C0.3712,2.7322 4.5442,0.0002 8.0002,0.0002 Z M8.0002,1.0002 C5.14460909,1.0002 1.53929452,3.30476457 1.37689159,5.94077905 L1.3712,6.1252 L1.0022,13.5562 C0.9832,13.9382 1.1172,14.3002 1.3802,14.5762 C1.6077,14.815075 1.90410625,14.9605438 2.22721367,14.9931785 L2.3672,15.0002 L13.6332,15.0002 C14.0102,15.0002 14.3602,14.8492 14.6202,14.5762 C14.850325,14.3347 14.9816844,14.0273563 14.9982,13.6983836 L14.9982,13.5562 L14.6292,6.1502 L14.6292,6.1252 C14.6292,3.4132 10.9222,1.0002 8.0002,1.0002 Z M8.0001,1.875 C8.2761,1.875 8.5001,2.099 8.5001,2.375 C8.5001,5.428 9.7231,6.563 13.0131,6.563 C13.2901,6.563 13.5131,6.786 13.5131,7.063 C13.5131,7.289 13.3601,7.473 13.1541,7.534 C13.0271,11.706 11.2111,14 8.0001,14 C4.7881,14 2.9731,11.704 2.8461,7.531 C2.6471,7.465 2.5011,7.284 2.5011,7.063 C2.5011,6.786 2.7251,6.563 3.0011,6.563 C6.3231,6.563 7.5001,5.467 7.5001,2.375 C7.5001,2.099 7.7241,1.875 8.0001,1.875 Z M8.0001,5.121 C7.3481,6.604 6.0041,7.365 3.8411,7.517 C3.9231,10.119 4.7471,13 8.0001,13 C11.2541,13 12.0781,10.118 12.1591,7.516 C9.9981,7.362 8.6541,6.602 8.0001,5.121 Z M8.8463,10.6094 C9.0623,10.4364 9.3773,10.4724 9.5493,10.6874 C9.7213,10.9034 9.6863,11.2174 9.4713,11.3904 C8.9943,11.7724 8.4963,11.9084 8.0393,11.9084 C7.3883,11.9084 6.8213,11.6304 6.5173,11.3934 C6.3003,11.2234 6.2623,10.9094 6.4323,10.6924 C6.6013,10.4744 6.9143,10.4374 7.1323,10.6044 C7.2253,10.6754 8.0393,11.2564 8.8463,10.6094 Z M5.4977,8 C5.7727,8 5.9957,8.224 5.9957,8.5 C5.9957,8.776 5.7727,9 5.4977,9 C5.2227,9 4.9997,8.776 4.9997,8.5 C4.9997,8.224 5.2227,8 5.4977,8 Z M10.5025,8 C10.7775,8 11.0005,8.224 11.0005,8.5 C11.0005,8.776 10.7775,9 10.5025,9 C10.2275,9 10.0045,8.776 10.0045,8.5 C10.0045,8.224 10.2275,8 10.5025,8 Z" id="fill"></path>
        </g>
    </g>
</svg>

<svg width="16" height="16" xmlns="http://www.w3.org/2000/svg"><path d="M8 0c3.38 0 7.445 2.613 7.623 5.901l.006.211.368 7.394a2.358 2.358 0 01-.652 1.76 2.34 2.34 0 01-1.517.726l-.195.008H2.367a2.342 2.342 0 01-1.712-.735 2.354 2.354 0 01-.654-1.563l.002-.196L.371 6.1c0-3.368 4.173-6.1 7.63-6.1zm0 1C5.145 1 1.54 3.305 1.377 5.94l-.006.185-.369 7.431c-.019.382.115.744.378 1.02.228.24.524.385.847.417l.14.007h11.266c.377 0 .727-.15.987-.424.23-.241.362-.549.378-.878v-.142L14.63 6.15v-.025C14.63 3.413 10.922 1 8 1zm0 .875a.5.5 0 01.5.5c0 3.053 1.223 4.188 4.513 4.188.277 0 .5.223.5.5 0 .226-.153.41-.359.471C13.027 11.706 11.211 14 8 14c-3.212 0-5.027-2.296-5.154-6.469a.494.494 0 01-.345-.468.5.5 0 01.5-.5c3.322 0 4.5-1.096 4.5-4.188a.5.5 0 01.5-.5zm0 3.246c-.652 1.483-1.996 2.244-4.159 2.396.082 2.602.906 5.483 4.16 5.483 3.253 0 4.077-2.882 4.158-5.484C10 7.362 8.654 6.602 8 5.121zm.846 5.488a.5.5 0 01.625.781 2.248 2.248 0 01-1.432.518 2.592 2.592 0 01-1.522-.515.5.5 0 01.615-.789c.093.071.907.652 1.714.005zM5.498 8a.5.5 0 11-.003.998A.5.5 0 015.498 8zm5.004 0a.5.5 0 11-.002.998.5.5 0 01.002-.998z" fill="#171B1F" fill-rule="evenodd"/></svg>
